X:603
T:Katty's Rambles
S:Bruce & Emmett's Drummers and Fifers Guide (1862), p. 60
M:6/8
L:1/8
Q:1/8=270
K:D
%%MIDI program 72
%%MIDI transpose 8
%%MIDI ratio 3 1
(3(A/B/c/)|d2d cde|fga gfe|fed cAF|GFG AFD|d2d cde|fga gfe|fed cAG|ABc d2::
e|fad fad|fdf agf|egc egc|ece gfe|fga gab|afd cBA|fed cAG|ABc d2:|
